X: 5954
T: Campbell's
R: barndance
M: 4/4
K: Gmajor
(B2B)c BAGA|BAGE D2 DE|(G2G)A BAGA|B2 A2 A2 GA|
(B2B)c BAGA|BAGE D2 DE|(G2G)A BAGA|B2 G2 G2 z2:|
B(d d)B d2 Bd|e(g g)e g2 ge|(d2 d)e dBGA|B2 A2 A2 GA|
B(d d)B d2 Bd|e(g g)e g2 ge|(d2 d)e dBGA|B2 G2 G2 z2:|

